dist/img/sprites/cart-header.svg

<svg width="48" height="48" viewBox="0 0 48 48" fill="none" xmlns="http://www.w3.org/2000/svg">
<path fill-rule="evenodd" clip-rule="evenodd" d="M9.58105 7C8.70787 7 8 7.73874 8 8.65C8 9.56126 8.70787 10.3 9.58105 10.3H10.328C11.0409 10.3 11.6657 10.798 11.8533 11.5159L12.5114 14.0341L15.9053 27.0209V30.1C15.9053 31.2443 16.2773 32.298 16.9021 33.1363C16.2819 33.8646 15.9053 34.8239 15.9053 35.875C15.9053 38.1532 17.6749 40 19.8579 40C22.0409 40 23.8105 38.1532 23.8105 35.875C23.8105 35.5925 23.7833 35.3166 23.7315 35.05H28.6327C28.5809 35.3166 28.5537 35.5925 28.5537 35.875C28.5537 38.1532 30.3234 40 32.5063 40C34.6893 40 36.459 38.1532 36.459 35.875C36.459 35.333 36.3587 34.8154 36.1767 34.3412C36.3546 34.0742 36.459 33.7498 36.459 33.4C36.459 32.4887 35.7511 31.75 34.8779 31.75H32.5063H20.6484C19.7752 31.75 19.0674 31.0113 19.0674 30.1V28.45H35.251C36.6773 28.45 37.927 27.4537 38.302 26.0176L40.887 16.1176C41.435 14.0185 39.9208 11.95 37.836 11.95H15.2444L14.904 10.6476C14.3412 8.49403 12.4669 7 10.328 7H9.58105ZM32.5063 35.05C32.0698 35.05 31.7158 35.4194 31.7158 35.875C31.7158 36.3306 32.0698 36.7 32.5063 36.7C32.9428 36.7 33.2968 36.3306 33.2968 35.875C33.2968 35.4194 32.9428 35.05 32.5063 35.05ZM35.251 25.15H18.6939L16.1067 15.25H37.836L35.251 25.15ZM19.8579 35.05C19.4213 35.05 19.0674 35.4194 19.0674 35.875C19.0674 36.3306 19.4213 36.7 19.8579 36.7C20.2945 36.7 20.6484 36.3306 20.6484 35.875C20.6484 35.4194 20.2945 35.05 19.8579 35.05Z" fill="white"/>
</svg>

<svg width="48" height="48" viewBox="0 0 48 48" fill="none" xmlns="http://www.w3.org/2000/svg"><path fill-rule="evenodd" clip-rule="evenodd" d="M9.581 7C8.708 7 8 7.739 8 8.65c0 .911.708 1.65 1.581 1.65h.747c.713 0 1.338.498 1.525 1.216l.658 2.518 3.394 12.987V30.1c0 1.144.372 2.198.997 3.036a4.212 4.212 0 00-.997 2.739c0 2.278 1.77 4.125 3.953 4.125s3.953-1.847 3.953-4.125c0-.282-.028-.558-.08-.825h4.902a4.323 4.323 0 00-.08.825c0 2.278 1.77 4.125 3.953 4.125s3.953-1.847 3.953-4.125c0-.542-.1-1.06-.282-1.534a1.69 1.69 0 00.282-.941c0-.911-.708-1.65-1.581-1.65h-14.23c-.873 0-1.58-.739-1.58-1.65v-1.65H35.25c1.426 0 2.676-.996 3.051-2.432l2.585-9.9c.548-2.1-.966-4.168-3.051-4.168H15.244l-.34-1.302C14.341 8.494 12.467 7 10.328 7h-.747zm22.925 28.05c-.436 0-.79.37-.79.825 0 .456.354.825.79.825.437 0 .79-.37.79-.825 0-.456-.353-.825-.79-.825zm2.745-9.9H18.694l-2.587-9.9h21.729l-2.585 9.9zm-15.393 9.9c-.437 0-.79.37-.79.825 0 .456.353.825.79.825.436 0 .79-.37.79-.825 0-.456-.354-.825-.79-.825z" fill="#fff"/></svg>
